X: 1
T: Andy Renwick's Ferret
C: Gordon Duncan
Z: Ralf Brockhausen
S: https://thesession.org/tunes/439#setting43962
R: reel
M: 4/4
L: 1/8
K: Ador
|:cA~A2 ABcd|eaag agef|gd~d2 ^cdcd|~d2 ^cd cdcd|
cA~A2 ABcd|eaag agef|gd~d2 efge|1 dBGA BAAB:|2 dBGA BAeg||
|:a2ag ageg|agbg agef|gd~d2 ^cdcd|~d2^cd cdcd|
[1 a2ag ageg|agbg agef|gd~d2 efge|dBGA BAeg:|
[2 cA~A2 ABcd|eaag agef|gd~d2 efge|dBGA BA2A||

